data/playwrite-hr.svg

<svg width="104.17" height="23.226" viewBox="0 0 104.17 23.226" xmlns="http://www.w3.org/2000/svg"><path transform="translate(0 17.92) scale(.014 -.014)" d="m441 331q-16-1-20 11.5t0 27.5q5 15 14 26t25 11q54 1 109 10.5t105 29 89 50 62 72 23 95.5q0 39-17.5 67.5t-49.5 46.5-76 27-97 9q-65 0-128.5-14.5t-121-43-107.5-72.5q-16-16-31-10t-25 18q-8 10-7.5 24t14.5 27q38 38 85.5 66t101 47 110.5 28.5 113 9.5q84 0 146-17t102-48 59.5-73 19.5-92q0-70-28.5-123t-77.5-92-113-64-135-38-144-16zm-323-348q-37 0-67.5 16t-51 40.5-28.5 50.5q-6 18-2 30.5t21 19.5q18 7 28.5 2t21.5-22 24.5-28.5 28.5-17.5 32-6q33 0 55 24.5t43 92.5l166 519q5 14 17.5 21t34.5 7q23 0 33.5-7t4.5-23l-163-509q-21-65-48-112.5t-63-72.5-87-25z"/><path transform="translate(11.676 17.92) scale(.014 -.014)" d="m-147-17q-19 0-25 11.5t-2.5 26 16 26 30.5 11.5q31 0 69 16t80.5 44.5 86.5 67 87.5 84.5 83 96 73.5 102 59 103.5 39 99 14 87.5q0 15 13.5 22t30.5 7 30.5-7 13.5-22q0-43-16-94t-45.5-107.5-69-114-86.5-114-98-107.5-102.5-94.5-102-75.5-96-50-83.5-18zm319 1q-43 0-64.5 15.5t-27.5 41.5-1.5 58 14.5 64l183 566q29 89 69.5 129t98.5 40q32 0 56.5-17.5t38-48.5 13.5-74q0-19-13.5-28t-30.5-9-30.5 9-13.5 28q0 18-3.5 30.5t-11 19-19.5 6.5-23.5-8.5-23-29.5-23.5-59l-193-602q-4-13-6-26t3-21.5 19-8.5 26 7 22.5 18.5 18.5 22.5q5 9 15.5 12t25.5-7q17-10 17.5-20.5t-4.5-21.5q-10-17-28.5-37.5t-44.5-34.5-59-14z"/><path transform="translate(17.192 17.92) scale(.014 -.014)" d="m180-17q-43 0-74 19.5t-47.5 56.5-16.5 87q0 44 12.5 95t38 100 64 89.5 90.5 64.5 118 24q33 0 65-10t60-27l1 4q7 18 16.5 23.5t27.5 5.5q32 0 40-9.5t2-29.5l-119-361q-4-13-6-26t3-21.5 20-8.5q13 0 25 7t22.5 18.5 18.5 22.5q6 9 16.5 12t25.5-7q16-10 17-20.5t-5-21.5q-9-17-27.5-37.5t-44.5-34.5-59-14q-31 0-50 9t-28.5 24-12.5 34-1 39q0 3 0 5.5t1 4.5q-35-44-70-70t-66.5-36.5-56.5-10.5zm-48 174q0-31 8.5-51.5t26-31.5 41.5-11q34 0 69 22.5t70 65.5 68 102l53 162q-27 15-52 20t-50 5q-50 0-89-19t-66.5-51-45-70-25.5-75.5-8-67.5z"/><path transform="translate(25.9 17.92) scale(.014 -.014)" d="m429 8q19 10 38 19.5t36.5 17 34 14.5 31.5 12q15 6 23.5-1.5t10.5-21.5-2.5-27-16.5-18q-19-9-39.5-19t-41-19.5-41.5-19.5-43-21zm-256-406q-59 0-95 31.5t-36 81.5q0 37 17.5 67.5t48.5 57 73.5 50.5 94.5 48q17 8 33 16t32.5 16.5 32.5 15.5l36 113q-23-28-47.5-50t-50-36-52-21.5-51.5-7.5q-54 0-85.5 24t-39 68.5 12.5 104.5l70 217q6 21 0.5 32t-21.5 11q-14 0-27-8t-27.5-25.5-31.5-46.5q-9-13-17-18t-27-2q-20 5-23.5 18t3.5 28q18 36 41.5 65.5t53.5 46.5 66 17q33 0 54.5-11.5t32-32.5 10-48.5-10.5-58.5l-60-190q-12-38-11-63t17.5-37.5 50.5-12.5q26 0 56 15t60.5 43 58.5 66.5 51 84.5l68 212q7 20 16.5 26t28.5 6q31 0 39.5-9.5t1.5-29.5l-197-607q-24-73-49.5-124t-55.5-82.5-66-46-79-14.5zm13 78q30 0 58.5 22t52.5 64.5 41 104.5l6 21q-9-4-18-9t-18-9-19-9q-36-18-65.5-34.5t-50-32.5-31.5-33-11-38q0-15 6.5-25.5t19.5-16 29-5.5z"/><path transform="translate(35.21 17.92) scale(.014 -.014)" d="m208-19q-48 0-76 18.5t-39 48.5-9 66.5 14 73.5l69 210q6 21 0.5 32t-21.5 11q-14 0-27-8t-27.5-25.5-31.5-46.5q-9-13-17-18t-27-2q-20 5-23.5 18t3.5 28q18 36 41.5 65.5t53.5 46.5 66 17q33 0 54.5-11.5t31.5-32.5 10-48.5-10-58.5l-58-183q-9-27-12-55.5t9-47.5 48-19q23 0 47 11t47.5 32.5 44 52.5 36.5 71l83 256q7 19 16 25.5t29 6.5q33 0 40-9t1-28l-78-244q-9-29-16.5-59.5t-7-56.5 14.5-41.5 46-15.5q38 0 70.5 19.5t58 53 44 74 28 83 9.5 79.5q0 17-1 33t-3 31.5-6 29.5q-3 18 0.5 30t14.5 18.5 28 6.5 27.5-11.5 16.5-37.5q4-15 6.5-31.5t3.5-33.5 1-35q0-45-13-97.5t-39.5-104-64-94-86.5-68-108-25.5q-45 0-74 14t-43.5 37.5-18.5 52.5q-21-33-48.5-56.5t-59-35.5-68.5-12z"/><path transform="translate(47.642 17.92) scale(.014 -.014)" d="m81-15q-16 0-29.5 7t-7.5 26l123 380q6 21 0.5 32t-21.5 11q-14 0-27-8t-27.5-25.5-31.5-46.5q-9-13-17-18t-27-2q-20 5-23.5 18t3.5 28q18 36 41.5 65.5t53.5 46.5 66 17q29 0 48-8.5t29-23.5 14-34 3-39l-6-17q22 31 44 54t44 39 42.5 24 39.5 8q14 0 23-7t9-31q0-25 3.5-43t12-28.5 21.5-10.5q24 0 53 18t62 48q9 8 20 5t19.5-13 11-22-6.5-20q-38-38-81-61t-85-23q-23 0-44 9.5t-35 32.5-17 63q-23-8-47.5-27t-49.5-48.5-48.5-69-43.5-86.5l-63-194q-4-13-14.5-19.5t-33.5-6.5z"/><path transform="translate(55.356 17.92) scale(.014 -.014)" d="m142-16q-64 0-85.5 44.5t4.5 123.5l107 331q7 20 16.5 26t28.5 6q31 0 39.5-9.5t1.5-29.5l-116-357q-9-29-4.5-44.5t22.5-15.5q13 0 25 7t22 18.5 19 22.5q6 9 16.5 12t25.5-7q16-10 17-20.5t-5-21.5q-13-22-32.5-42t-45-32-56.5-12zm133 685q-20 0-34 13t-14 38q0 27 17.5 51t54.5 24q21 0 35-12.5t14-38.5q0-27-17.5-51t-55.5-24z"/><path transform="translate(59.556 17.92) scale(.014 -.014)" d="m167-16q-54 0-76.5 25t-21 67 17.5 95l81 249h-79q-11 0-15 10t1 30q6 20 16 30t21 10h82l64 198q6 20 15.5 26t29.5 6q31 0 39.5-9.5t1.5-29.5l-62-191h126q11 0 15.5-9.5t-1.5-30.5q-5-19-15-29.5t-21-10.5h-129l-95-291q-11-35-5.5-52.5t26.5-17.5q30 0 54 20t41 41q6 9 16.5 12t25.5-7q17-10 18-20t-5-21q-12-20-34.5-44t-55-40-76.5-16z"/><path transform="translate(64.988 17.92) scale(.014 -.014)" d="m234-19q-59 0-100 25.5t-62.5 69-21.5 99.5q0 55 20 115.5t60 112.5 99.5 84 138.5 32q44 0 76.5-13.5t51-39 18.5-62.5q0-39-20.5-72t-57.5-59.5-88-45.5-113-30-133-13l20 70q50 2 95.5 9.5t83.5 20 66 29.5 43 36 15 39q0 26-15.5 38.5t-51.5 12.5q-55 0-96-25.5t-68-66-40.5-85.5-13.5-84q0-36 13-62.5t37-40.5 54-14 53 10 44 26.5 42 36.5q13 12 26.5 10t24.5-13q13-12 15-25.5t-11-26.5q-34-35-67-56.5t-67-31.5-70-10z"/><path transform="translate(76.552 17.92) scale(.014 -.014)" d="m159-17q-37 0-63.5 15t-41 41.5-14.5 60.5q0 51 23.5 92.5t63.5 76 89.5 62 101.5 49.5l113 349q14 42 5.5 60.5t-39.5 18.5q-15 0-36.5-7.5t-47.5-24.5-59-48q-12-11-23-10.5t-24 13.5q-12 13-12 24.5t11 22.5q32 34 66.5 59t70 39 72.5 14q74 0 102.5-43.5t1.5-127.5l-99-306q60 22 120 45.5t120 48.5 119 49l34 103q24 73 48 122t58 73.5 83 24.5q41 0 68-16.5t40-44.5 13-62q0-42-23.5-79.5t-63-70-87.5-60-98-50.5l-105-322q-12-36-11.5-59.5t13.5-35 38-11.5q23 0 43.5 10.5t39.5 29.5 34 42q11 17 23 21t29-5q15-7 18.5-19.5t-5.5-31.5q-20-36-49-66t-64-48-74-18q-41 0-70.5 14.5t-46 42-18 66.5 14.5 87l86 263q-41-17-86.5-35.5t-92-37-92-36-89.5-33.5l-36-111q-23-73-48-122t-59-73.5-85-24.5zm6 77q26 0 47.5 30t44.5 102l28 83q-31-13-59.5-31t-50.5-40-35-47.5-13-54.5q0-19 10-30.5t28-11.5zm720 543q30 14 57 30.5t48 35 33 40.5 12 46q0 19-8.5 33t-28.5 14q-26 0-46.5-30.5t-44.5-105.5z"/><path transform="translate(91.07 17.92) scale(.014 -.014)" d="m730-19q-22 0-42.5 5.5t-39 18-35.5 33-31.5 50-27.5 68.5q-5 18-10.5 37t-10.5 37-10.5 36.5-10 36.5-8.5 36.5-8 36.5q-25 4-39.5 20t-14.5 36q0 22 14 38.5t45 16.5q22 0 37-9.5t27-22.5q53 10 100.5 28.5t84.5 47 58.5 66.5 21.5 85q0 34-16 59t-45 41-70.5 24-92.5 8q-64 0-127-14.5t-120.5-43-107.5-72.5q-16-16-31-10t-25 18q-9 12-8 24.5t15 26.5q38 38 85.5 66t101 47 110 28.5 112.5 9.5q81 0 140-16t97-45 56-67.5 18-83.5q0-51-18-93t-49.5-76-75-59.5-94-43-106.5-28.5q3-14 6.5-28t7-28 7-27.5 7.5-27.5 8.5-27.5 8.5-27.5q12-38 23-65t22.5-44.5 22-27.5 22-14 22.5-4q27 0 51.5 20t61.5 64q11 15 24.5 15.5t28.5-13.5q11-11 13-22t-9-28q-19-30-46.5-56.5t-60-43-69.5-16.5zm-612 2q-37 0-67.5 16t-51 40.5-28.5 50.5q-6 18-2 30.5t21 19.5q18 7 28.5 2t21.5-22 24.5-28.5 28.5-17.5 32-6q33 0 55 24.5t43 92.5l166 519q5 14 17.5 21t34.5 7q23 0 33.5-7t4.5-23l-163-509q-21-65-48-112.5t-63-72.5-87-25z"/></svg>

<?xml version="1.0" encoding="utf-8" ?>
<svg baseProfile="tiny" height="100%" version="1.2" width="100%" xmlns="http://www.w3.org/2000/svg" xmlns:ev="http://www.w3.org/2001/xml-events" xmlns:xlink="http://www.w3.org/1999/xlink"><defs /><g><path d="M441 331Q425 330 421.0 342.5Q417 355 421 370Q426 385 435.0 396.0Q444 407 460 407Q514 408 569.0 417.5Q624 427 674.0 446.5Q724 466 763.0 496.5Q802 527 825.0 568.5Q848 610 848 664Q848 703 830.5 731.5Q813 760 781.0 778.0Q749 796 705.0 805.0Q661 814 608 814Q543 814 479.5 799.5Q416 785 358.5 756.5Q301 728 251 684Q235 668 220.0 674.0Q205 680 195 692Q187 702 187.5 716.0Q188 730 202 743Q240 781 287.5 809.0Q335 837 388.5 856.0Q442 875 499.0 884.5Q556 894 612 894Q696 894 758.0 877.0Q820 860 860.0 829.0Q900 798 919.5 756.0Q939 714 939 664Q939 594 910.5 541.0Q882 488 833.0 449.0Q784 410 720.0 385.0Q656 360 585.0 347.0Q514 334 441 331ZM118 -17Q81 -17 50.5 -1.0Q20 15 -0.5 39.5Q-21 64 -29 90Q-35 108 -31.0 120.5Q-27 133 -10 140Q8 147 18.5 142.0Q29 137 40 120Q51 103 64.5 91.5Q78 80 93.0 74.0Q108 68 125 68Q158 68 180.0 92.5Q202 117 223 185L389 704Q394 718 406.5 725.0Q419 732 441 732Q464 732 474.5 725.0Q485 718 479 702L316 193Q295 128 268.0 80.5Q241 33 205.0 8.0Q169 -17 118 -17Z" transform="translate(0.0, 72) scale(0.072, -0.072)" /><path d="M-147 -17Q-166 -17 -172.0 -5.5Q-178 6 -174.5 20.5Q-171 35 -158.5 46.5Q-146 58 -128 58Q-97 58 -59.0 74.0Q-21 90 21.5 118.5Q64 147 108.0 185.5Q152 224 195.5 270.0Q239 316 278.5 366.0Q318 416 352.0 468.0Q386 520 411.0 571.5Q436 623 450.0 670.5Q464 718 464 758Q464 773 477.5 780.0Q491 787 508.0 787.0Q525 787 538.5 780.0Q552 773 552 758Q552 715 536.0 664.0Q520 613 490.5 556.5Q461 500 421.5 442.5Q382 385 335.0 328.5Q288 272 237.0 221.0Q186 170 134.5 126.5Q83 83 32.5 51.0Q-18 19 -63.5 1.0Q-109 -17 -147 -17ZM172 -16Q129 -16 107.5 -0.5Q86 15 80.0 41.0Q74 67 78.5 99.0Q83 131 93 163L276 729Q305 818 345.5 858.0Q386 898 444 898Q476 898 500.5 880.5Q525 863 538.5 832.0Q552 801 552 758Q552 739 538.5 730.0Q525 721 508.0 721.0Q491 721 477.5 730.0Q464 739 464 758Q464 776 460.5 788.5Q457 801 449.5 807.5Q442 814 430 814Q418 814 406.5 805.5Q395 797 383.5 776.0Q372 755 360 717L167 115Q163 102 161.0 89.0Q159 76 164.0 67.5Q169 59 183 59Q197 59 209.0 66.0Q221 73 231.5 84.5Q242 96 250 107Q255 116 265.5 119.0Q276 122 291 112Q308 102 308.5 91.5Q309 81 304 70Q294 53 275.5 32.5Q257 12 231.0 -2.0Q205 -16 172 -16Z" transform="translate(60.047999999999995, 72) scale(0.072, -0.072)" /><path d="M180 -17Q137 -17 106.0 2.5Q75 22 58.5 59.0Q42 96 42 146Q42 190 54.5 241.0Q67 292 92.5 341.0Q118 390 156.5 430.5Q195 471 247.0 495.0Q299 519 365 519Q398 519 430.0 509.0Q462 499 490 482L491 486Q498 504 507.5 509.5Q517 515 535 515Q567 515 575.0 505.5Q583 496 577 476L458 115Q454 102 452.0 89.0Q450 76 455.0 67.5Q460 59 475 59Q488 59 500.0 66.0Q512 73 522.5 84.5Q533 96 541 107Q547 116 557.5 119.0Q568 122 583 112Q599 102 600.0 91.5Q601 81 595 70Q586 53 567.5 32.5Q549 12 523.0 -2.0Q497 -16 464 -16Q433 -16 414.0 -7.0Q395 2 385.5 17.0Q376 32 373.0 51.0Q370 70 372 90Q372 93 372.0 95.5Q372 98 373 100Q338 56 303.0 30.0Q268 4 236.5 -6.5Q205 -17 180 -17ZM132 157Q132 126 140.5 105.5Q149 85 166.5 74.0Q184 63 208 63Q242 63 277.0 85.5Q312 108 347.0 151.0Q382 194 415 253L468 415Q441 430 416.0 435.0Q391 440 366 440Q316 440 277.0 421.0Q238 402 210.5 370.0Q183 338 165.5 300.0Q148 262 140.0 224.5Q132 187 132 157Z" transform="translate(88.416, 72) scale(0.072, -0.072)" /><path d="M429 8Q448 18 467.0 27.5Q486 37 503.5 44.5Q521 52 537.5 59.0Q554 66 569 71Q584 77 592.5 69.5Q601 62 603.0 48.0Q605 34 600.5 21.0Q596 8 584 3Q565 -6 544.5 -16.0Q524 -26 503.5 -35.5Q483 -45 462.0 -55.0Q441 -65 419 -76ZM173 -398Q114 -398 78.0 -366.5Q42 -335 42 -285Q42 -248 59.5 -217.5Q77 -187 108.0 -160.5Q139 -134 181.5 -110.0Q224 -86 276 -62Q293 -54 309.0 -46.0Q325 -38 341.5 -29.5Q358 -21 374 -14L410 99Q387 71 362.5 49.0Q338 27 312.5 13.0Q287 -1 260.5 -8.5Q234 -16 209 -16Q155 -16 123.5 8.0Q92 32 84.5 76.5Q77 121 97 181L167 398Q173 419 167.5 430.0Q162 441 146 441Q132 441 119.0 433.0Q106 425 91.5 407.5Q77 390 60 361Q51 348 43.0 343.0Q35 338 16 341Q-4 346 -7.5 359.0Q-11 372 -4 387Q14 423 37.5 452.5Q61 482 91.0 499.0Q121 516 157 516Q190 516 211.5 504.5Q233 493 243.5 472.0Q254 451 253.5 423.5Q253 396 243 365L183 175Q171 137 172.0 112.0Q173 87 189.5 74.5Q206 62 240 62Q266 62 296.0 77.0Q326 92 356.5 120.0Q387 148 415.0 186.5Q443 225 466 271L534 483Q541 503 550.5 509.0Q560 515 579 515Q610 515 618.5 505.5Q627 496 620 476L423 -131Q399 -204 373.5 -255.0Q348 -306 318.0 -337.5Q288 -369 252.0 -383.5Q216 -398 173 -398ZM186 -320Q216 -320 244.5 -298.0Q273 -276 297.0 -233.5Q321 -191 338 -129L344 -108Q335 -112 326.0 -117.0Q317 -122 308.0 -126.0Q299 -130 289 -135Q253 -153 223.5 -169.5Q194 -186 173.5 -202.0Q153 -218 142.0 -235.0Q131 -252 131 -273Q131 -288 137.5 -298.5Q144 -309 157.0 -314.5Q170 -320 186 -320Z" transform="translate(133.2, 72) scale(0.072, -0.072)" /><path d="M208 -19Q160 -19 132.0 -0.5Q104 18 93.0 48.0Q82 78 84.0 114.5Q86 151 98 188L167 398Q173 419 167.5 430.0Q162 441 146 441Q132 441 119.0 433.0Q106 425 91.5 407.5Q77 390 60 361Q51 348 43.0 343.0Q35 338 16 341Q-4 346 -7.5 359.0Q-11 372 -4 387Q14 423 37.5 452.5Q61 482 91.0 499.0Q121 516 157 516Q190 516 211.5 504.5Q233 493 243.0 472.0Q253 451 253.0 423.5Q253 396 243 365L185 182Q176 155 173.0 126.5Q170 98 182.0 79.0Q194 60 230 60Q253 60 277.0 71.0Q301 82 324.5 103.5Q348 125 368.5 156.0Q389 187 405 227L488 483Q495 502 504.0 508.5Q513 515 533 515Q566 515 573.0 506.0Q580 497 574 478L496 234Q487 205 479.5 174.5Q472 144 472.5 118.0Q473 92 487.0 76.5Q501 61 533 61Q571 61 603.5 80.5Q636 100 661.5 133.5Q687 167 705.5 207.5Q724 248 733.5 290.5Q743 333 743 370Q743 387 742.0 403.0Q741 419 739.0 434.5Q737 450 733 464Q730 482 733.5 494.0Q737 506 748.0 512.5Q759 519 776 519Q793 519 803.5 507.5Q814 496 820 470Q824 455 826.5 438.5Q829 422 830.0 405.0Q831 388 831 370Q831 325 818.0 272.5Q805 220 778.5 168.5Q752 117 714.5 74.5Q677 32 628.0 6.5Q579 -19 520 -19Q475 -19 446.0 -5.0Q417 9 402.5 32.5Q388 56 384 85Q363 52 335.5 28.5Q308 5 276.5 -7.0Q245 -19 208 -19Z" transform="translate(181.07999999999998, 72) scale(0.072, -0.072)" /><path d="M81 -15Q65 -15 51.5 -8.0Q38 -1 44 18L167 398Q173 419 167.5 430.0Q162 441 146 441Q132 441 119.0 433.0Q106 425 91.5 407.5Q77 390 60 361Q51 348 43.0 343.0Q35 338 16 341Q-4 346 -7.5 359.0Q-11 372 -4 387Q14 423 37.5 452.5Q61 482 91.0 499.0Q121 516 157 516Q186 516 205.0 507.5Q224 499 234.0 484.0Q244 469 248.0 450.0Q252 431 251 411L245 394Q267 425 289.0 448.0Q311 471 333.0 487.0Q355 503 375.5 511.0Q396 519 415 519Q429 519 438.0 512.0Q447 505 447 481Q447 456 450.5 438.0Q454 420 462.5 409.5Q471 399 484 399Q508 399 537.0 417.0Q566 435 599 465Q608 473 619.0 470.0Q630 467 638.5 457.0Q647 447 649.5 435.0Q652 423 643 415Q605 377 562.0 354.0Q519 331 477 331Q454 331 433.0 340.5Q412 350 398.0 373.0Q384 396 381 436Q358 428 333.5 409.0Q309 390 284.0 360.5Q259 331 235.5 291.5Q212 252 192 205L129 11Q125 -2 114.5 -8.5Q104 -15 81 -15Z" transform="translate(245.01599999999996, 72) scale(0.072, -0.072)" /><path d="M142 -16Q78 -16 56.5 28.5Q35 73 61 152L168 483Q175 503 184.5 509.0Q194 515 213 515Q244 515 252.5 505.5Q261 496 254 476L138 119Q129 90 133.5 74.5Q138 59 156 59Q169 59 181.0 66.0Q193 73 203.0 84.5Q213 96 222 107Q228 116 238.5 119.0Q249 122 264 112Q280 102 281.0 91.5Q282 81 276 70Q263 48 243.5 28.0Q224 8 198.5 -4.0Q173 -16 142 -16ZM275 669Q255 669 241.0 682.0Q227 695 227 720Q227 747 244.5 771.0Q262 795 299 795Q320 795 334.0 782.5Q348 770 348 744Q348 717 330.5 693.0Q313 669 275 669Z" transform="translate(284.688, 72) scale(0.072, -0.072)" /><path d="M167 -16Q113 -16 90.5 9.0Q68 34 69.5 76.0Q71 118 87 171L168 420H89Q78 420 74.0 430.0Q70 440 75 460Q81 480 91.0 490.0Q101 500 112 500H194L258 698Q264 718 273.5 724.0Q283 730 303 730Q334 730 342.5 720.5Q351 711 344 691L282 500H408Q419 500 423.5 490.5Q428 481 422 460Q417 441 407.0 430.5Q397 420 386 420H257L162 129Q151 94 156.5 76.5Q162 59 183 59Q213 59 237.0 79.0Q261 99 278 120Q284 129 294.5 132.0Q305 135 320 125Q337 115 338.0 105.0Q339 95 333 84Q321 64 298.5 40.0Q276 16 243.5 0.0Q211 -16 167 -16Z" transform="translate(306.288, 72) scale(0.072, -0.072)" /><path d="M234 -19Q175 -19 134.0 6.5Q93 32 71.5 75.5Q50 119 50 175Q50 230 70.0 290.5Q90 351 130.0 403.0Q170 455 229.5 487.0Q289 519 368 519Q412 519 444.5 505.5Q477 492 495.5 466.5Q514 441 514 404Q514 365 493.5 332.0Q473 299 436.0 272.5Q399 246 348.0 227.0Q297 208 235.0 197.0Q173 186 102 184L122 254Q172 256 217.5 263.5Q263 271 301.0 283.5Q339 296 367.0 313.0Q395 330 410.0 349.0Q425 368 425 388Q425 414 409.5 426.5Q394 439 358 439Q303 439 262.0 413.5Q221 388 194.0 347.5Q167 307 153.5 262.0Q140 217 140 178Q140 142 153.0 115.5Q166 89 190.0 75.0Q214 61 244 61Q274 61 297.0 71.0Q320 81 341.0 97.5Q362 114 383 134Q396 146 409.5 144.0Q423 142 434 131Q447 119 449.0 105.5Q451 92 438 79Q404 44 371.0 22.5Q338 1 304.0 -9.0Q270 -19 234 -19Z" transform="translate(334.224, 72) scale(0.072, -0.072)" /><path d="M159 -17Q122 -17 95.5 -2.0Q69 13 54.5 39.5Q40 66 40 100Q40 151 63.5 192.5Q87 234 127.0 268.5Q167 303 216.5 330.5Q266 358 318 380L431 729Q445 771 436.5 789.5Q428 808 397 808Q382 808 360.5 800.5Q339 793 313.0 776.0Q287 759 254 728Q242 717 231.0 717.5Q220 718 207 731Q195 744 195.0 755.5Q195 767 206 778Q238 812 272.5 837.0Q307 862 342.5 876.0Q378 890 415 890Q489 890 517.5 846.5Q546 803 519 719L420 413Q480 435 540.0 458.5Q600 482 660.0 507.0Q720 532 779 556L813 659Q837 732 861.0 781.0Q885 830 919.0 854.5Q953 879 1002 879Q1043 879 1070.0 862.5Q1097 846 1110.0 818.0Q1123 790 1123 756Q1123 714 1099.5 676.5Q1076 639 1036.5 606.5Q997 574 949.0 546.5Q901 519 851 496L746 174Q734 138 734.5 114.5Q735 91 748.0 79.5Q761 68 786 68Q809 68 829.5 78.5Q850 89 869.0 108.0Q888 127 903 150Q914 167 926.0 171.0Q938 175 955 166Q970 159 973.5 146.5Q977 134 968 115Q948 79 919.0 49.0Q890 19 855.0 1.0Q820 -17 781 -17Q740 -17 710.5 -2.5Q681 12 664.5 39.5Q648 67 646.5 106.0Q645 145 661 193L747 456Q706 439 660.5 420.5Q615 402 568.5 383.5Q522 365 476.5 347.5Q431 330 387 314L351 203Q328 130 303.0 81.0Q278 32 244.0 7.5Q210 -17 159 -17ZM165 60Q191 60 212.5 90.0Q234 120 257 192L285 275Q254 262 225.5 244.0Q197 226 175.0 204.0Q153 182 140.0 156.5Q127 131 127 102Q127 83 137.0 71.5Q147 60 165 60ZM885 603Q915 617 942.0 633.5Q969 650 990.0 668.5Q1011 687 1023.0 709.0Q1035 731 1035 755Q1035 774 1026.5 788.0Q1018 802 998 802Q972 802 951.5 771.5Q931 741 907 666Z" transform="translate(393.696, 72) scale(0.072, -0.072)" /><path d="M730 -19Q708 -19 687.5 -13.5Q667 -8 648.5 4.5Q630 17 613.0 37.5Q596 58 581.5 87.5Q567 117 554 156Q549 174 543.5 193.0Q538 212 533.0 230.0Q528 248 522.5 266.5Q517 285 512.5 303.0Q508 321 504.0 339.5Q500 358 496 376Q471 380 456.5 396.0Q442 412 442 432Q442 454 456.0 470.5Q470 487 501 487Q523 487 538.0 477.5Q553 468 565 455Q618 465 665.5 483.5Q713 502 750.0 530.5Q787 559 808.5 597.0Q830 635 830 682Q830 716 814.0 741.0Q798 766 769.0 782.0Q740 798 698.5 806.0Q657 814 606 814Q542 814 479.0 799.5Q416 785 358.5 756.5Q301 728 251 684Q235 668 220.0 674.0Q205 680 195 692Q186 704 187.0 716.5Q188 729 202 743Q240 781 287.5 809.0Q335 837 388.5 856.0Q442 875 498.5 884.5Q555 894 611 894Q692 894 751.0 878.0Q810 862 848.0 833.0Q886 804 904.0 765.5Q922 727 922 682Q922 631 904.0 589.0Q886 547 854.5 513.0Q823 479 779.5 453.5Q736 428 685.5 410.5Q635 393 579 382Q582 368 585.5 354.0Q589 340 592.5 326.0Q596 312 599.5 298.5Q603 285 607.0 271.0Q611 257 615.5 243.5Q620 230 624 216Q636 178 647.0 151.0Q658 124 669.5 106.5Q681 89 691.5 79.0Q702 69 713.5 65.0Q725 61 736 61Q763 61 787.5 81.0Q812 101 849 145Q860 160 873.5 160.5Q887 161 902 147Q913 136 915.0 125.0Q917 114 906 97Q887 67 859.5 40.5Q832 14 799.5 -2.5Q767 -19 730 -19ZM118 -17Q81 -17 50.5 -1.0Q20 15 -0.5 39.5Q-21 64 -29 90Q-35 108 -31.0 120.5Q-27 133 -10 140Q8 147 18.5 142.0Q29 137 40 120Q51 103 64.5 91.5Q78 80 93.0 74.0Q108 68 125 68Q158 68 180.0 92.5Q202 117 223 185L389 704Q394 718 406.5 725.0Q419 732 441 732Q464 732 474.5 725.0Q485 718 479 702L316 193Q295 128 268.0 80.5Q241 33 205.0 8.0Q169 -17 118 -17Z" transform="translate(468.36, 72) scale(0.072, -0.072)" /></g></svg>
